dist/img/arrow-right.svg

<svg width="14" height="22" viewBox="0 0 14 22" fill="none" xmlns="http://www.w3.org/2000/svg">
<path id="Vector" d="M13.5119 10.6488C13.5161 10.0857 13.2798 9.54642 12.86 9.14794L3.85768 0.68819C2.97582 -0.140529 1.54543 -0.140529 0.6614 0.68819C-0.220467 1.51691 -0.220467 2.86109 0.6614 3.69184L8.08771 10.6488L0.684624 17.6057C-0.0791244 18.4463 -0.0284634 19.6953 0.80277 20.4764C1.63403 21.2576 2.96526 21.3071 3.85766 20.5875L12.86 12.1277V12.1297C13.2756 11.7352 13.5098 11.2039 13.5119 10.6488Z" fill="#B7BABE"/>
</svg>

<svg width="14" height="22" fill="none" xmlns="http://www.w3.org/2000/svg"><path d="M13.512 10.649a2.049 2.049 0 00-.652-1.501L3.858.688C2.976-.14 1.545-.14.66.688a2.036 2.036 0 000 3.004l7.427 6.957-7.403 6.957c-.764.84-.713 2.09.118 2.87.831.782 2.162.831 3.055.111l9.002-8.46v.003c.416-.395.65-.926.652-1.481z" fill="#B7BABE"/></svg>
